X:1
T: Tulchan Lodge
C:J. Scott Skinner
R:Strathspey
Q: 128
K:A
M:4/4
L:1/16
|:CE3 A3B c3B A4|DF3 B3c d3c B4|CE3 A3B c3A e3c|dcB2 AGF2 ((3E2F2E2) ((3D2C2B,2) |
CE3 A3B c3B A4|DF3 B3c d3c B4|CE3 A3B c3A a3f|((3e2f2e2) ((3d2c2B2) cA3 A2g2|
aA3 c3e a3e c3A|DF3 B3c d3e f3g|aA3 c3e a3e c3A|def2 Bcd2 GAB2 ((3e2f2g2) |
aA3 c3e a3e c3A|D3F B3A G3F E3D|CE3 A3B cA3 a3f|((3e2f2e2) ((3d2c2B2) cA3 A4:|
